src/assets/img/partners/logo-partner--clinks--white.svg

<svg fill="none" height="20" viewBox="0 0 95 20" width="95" xmlns="http://www.w3.org/2000/svg"><g fill="#fff"><path d="m0 2.04232h4.71853v4.98068h-4.71853z"/><path d="m5.76709 2.04232h4.71851v4.98068h-4.71851z"/><path d="m11.5342 2.04232h4.7185v4.98068h-4.7185z"/><path d="m0 8.12981h4.71853v4.98069h-4.71853z"/><path d="m5.76709 8.12981h4.71851v4.98069h-4.71851z"/><path d="m11.5342 8.12981h4.7185v4.98069h-4.7185z"/><path d="m0 14.2173h4.71853v4.9807h-4.71853z"/><path d="m5.76709 14.2173h4.71851v4.9807h-4.71851z"/><path d="m11.5342 14.2173h4.7185v4.9807h-4.7185z"/><path d="m28.4008 5.34493c-1.1069 0-1.9705.48063-2.5907 1.44189-.6202.95298-.9303 2.27057-.9303 3.95278 0 3.497 1.26 5.2455 3.7801 5.2455.7615 0 1.4994-.1119 2.2138-.3356.7144-.2238 1.4327-.4931 2.155-.808v4.1517c-1.4367.6712-3.0617 1.0068-4.8752 1.0068-2.5985 0-4.5926-.7955-5.9821-2.3866-1.3817-1.591-2.0726-3.8906-2.0726-6.8987 0-1.88106.3337-3.53426 1.001-4.95957.6751-1.42532 1.6407-2.51917 2.8968-3.28154 1.264-.77067 2.7477-1.156 4.4513-1.156 1.8606 0 3.6387.42676 5.3345 1.2803l-1.4249 3.86575c-.6359-.31489-1.2718-.58007-1.9077-.79552-.6359-.21546-1.3189-.32319-2.049-.32319z"/><path d="m40.7301 19.7514h-4.6044v-19.341207h4.6044z"/><path d="m48.5493 19.7514h-4.6044v-14.08328h4.6044zm-4.7221-17.58857c0-.72923.1923-1.272008.577-1.628337.3846-.356329 1.0048-.534493 1.8606-.534493.8557 0 1.4798.182308 1.8723.546924.3925.364615.5888.903256.5888 1.615906 0 1.42532-.8204 2.13798-2.4611 2.13798-1.6251 0-2.4376-.71266-2.4376-2.13798z"/><path d="m60.1838 19.7514v-7.6818c0-.9364-.1295-1.6408-.3886-2.11311-.2512-.48062-.6594-.72094-1.2247-.72094-.7772 0-1.3385.32733-1.6839.98195-.3455.6547-.5182 1.7775-.5182 3.3686v6.1653h-4.6043v-14.08328h3.4739l.577 1.74021h.2708c.3925-.66294.9342-1.16014 1.6251-1.49161.6987-.33147 1.4994-.4972 2.4023-.4972 1.4759 0 2.622.45162 3.4385 1.35487.8243.90326 1.2365 2.17527 1.2365 3.81601v9.161z"/><path d="m72.3836 11.8334c.5574-.9364 1.0323-1.6656 1.4249-2.18766l2.991-3.97762h5.1343l-4.6279 5.99128 4.9223 8.092h-5.2638l-2.9204-5.0466-1.4955 1.2057v3.8409h-4.628v-19.341207h4.628v7.607207c0 1.30102-.0864 2.573-.2591 3.816z"/><path d="m94.1218 15.4257c0 1.5082-.4867 2.6476-1.4602 3.4183s-2.3709 1.156-4.1922 1.156c-.9892 0-1.8488-.058-2.5789-.174-.7301-.1077-1.4759-.3108-2.2374-.6091v-3.8906c.7144.3315 1.4955.6049 2.3434.8204.8557.2154 1.6172.3232 2.2845.3232.997 0 1.4955-.2404 1.4955-.721 0-.2486-.1413-.4682-.4239-.6588-.2748-.1989-1.0834-.5801-2.4258-1.1435-1.2247-.5304-2.0804-1.1312-2.5672-1.8024-.4867-.6795-.7301-1.5372-.7301-2.57304 0-1.3093.4789-2.32857 1.4367-3.0578.9577-.72923 2.312-1.09384 4.0627-1.09384.8792 0 1.7035.10358 2.4729.31075.7772.19888 1.5819.49306 2.414.88253l-1.2482 3.13238c-.6124-.29003-1.26-.53449-1.943-.73337-.683-.20717-1.2404-.31075-1.6722-.31075-.7536 0-1.1305.19473-1.1305.58421 0 .24032.1296.44748.3886.6215.2669.16573 1.0284.50963 2.2845 1.03173.9343.406 1.629.8038 2.0844 1.1933.4631.3894.8007.8493 1.0127 1.3797.2198.5221.3297 1.1601.3297 1.9142z"/></g></svg>

<svg width="95" height="20" viewBox="0 0 95 20" fill="none" xmlns="http://www.w3.org/2000/svg">
<path d="M0 2.04232H4.71853V7.023H0V2.04232Z" fill="white"/>
<path d="M5.76709 2.04232H10.4856V7.023H5.76709V2.04232Z" fill="white"/>
<path d="M11.5342 2.04232H16.2527V7.023H11.5342V2.04232Z" fill="white"/>
<path d="M0 8.12981H4.71853V13.1105H0V8.12981Z" fill="white"/>
<path d="M5.76709 8.12981H10.4856V13.1105H5.76709V8.12981Z" fill="white"/>
<path d="M11.5342 8.12981H16.2527V13.1105H11.5342V8.12981Z" fill="white"/>
<path d="M0 14.2173H4.71853V19.198H0V14.2173Z" fill="white"/>
<path d="M5.76709 14.2173H10.4856V19.198H5.76709V14.2173Z" fill="white"/>
<path d="M11.5342 14.2173H16.2527V19.198H11.5342V14.2173Z" fill="white"/>
<path d="M28.4008 5.34493C27.2939 5.34493 26.4303 5.82556 25.8101 6.78682C25.1899 7.7398 24.8798 9.05739 24.8798 10.7396C24.8798 14.2366 26.1398 15.9851 28.6599 15.9851C29.4214 15.9851 30.1593 15.8732 30.8737 15.6495C31.5881 15.4257 32.3064 15.1564 33.0287 14.8415V18.9932C31.592 19.6644 29.967 20 28.1535 20C25.555 20 23.5609 19.2045 22.1714 17.6134C20.7897 16.0224 20.0988 13.7228 20.0988 10.7147C20.0988 8.83364 20.4325 7.18044 21.0998 5.75513C21.7749 4.32981 22.7405 3.23596 23.9966 2.47359C25.2606 1.70292 26.7443 1.31759 28.4479 1.31759C30.3085 1.31759 32.0866 1.74435 33.7824 2.59789L32.3575 6.46364C31.7216 6.14875 31.0857 5.88357 30.4498 5.66812C29.8139 5.45266 29.1309 5.34493 28.4008 5.34493Z" fill="white"/>
<path d="M40.7301 19.7514H36.1257V0.410193H40.7301V19.7514Z" fill="white"/>
<path d="M48.5493 19.7514H43.9449V5.66812H48.5493V19.7514ZM43.8272 2.16283C43.8272 1.4336 44.0195 0.890822 44.4042 0.534493C44.7888 0.178164 45.409 0 46.2648 0C47.1205 0 47.7446 0.182308 48.1371 0.546924C48.5296 0.911539 48.7259 1.45018 48.7259 2.16283C48.7259 3.58815 47.9055 4.30081 46.2648 4.30081C44.6397 4.30081 43.8272 3.58815 43.8272 2.16283Z" fill="white"/>
<path d="M60.1838 19.7514V12.0696C60.1838 11.1332 60.0543 10.4288 59.7952 9.95649C59.544 9.47587 59.1358 9.23555 58.5705 9.23555C57.7933 9.23555 57.232 9.56288 56.8866 10.2175C56.5411 10.8722 56.3684 11.995 56.3684 13.5861V19.7514H51.7641V5.66812H55.238L55.815 7.40833H56.0858C56.4783 6.74539 57.02 6.24819 57.7109 5.91672C58.4096 5.58525 59.2103 5.41952 60.1132 5.41952C61.5891 5.41952 62.7352 5.87114 63.5517 6.77439C64.376 7.67765 64.7882 8.94966 64.7882 10.5904V19.7514H60.1838Z" fill="white"/>
<path d="M72.3836 11.8334C72.941 10.897 73.4159 10.1678 73.8085 9.64574L76.7995 5.66812H81.9338L77.3059 11.6594L82.2282 19.7514H76.9644L74.044 14.7048L72.5485 15.9105V19.7514H67.9205V0.410193H72.5485V8.0174C72.5485 9.31842 72.4621 10.5904 72.2894 11.8334H72.3836Z" fill="white"/>
<path d="M94.1218 15.4257C94.1218 16.9339 93.6351 18.0733 92.6616 18.844C91.6881 19.6147 90.2907 20 88.4694 20C87.4802 20 86.6206 19.942 85.8905 19.826C85.1604 19.7183 84.4146 19.5152 83.6531 19.2169V15.3263C84.3675 15.6578 85.1486 15.9312 85.9965 16.1467C86.8522 16.3621 87.6137 16.4699 88.281 16.4699C89.278 16.4699 89.7765 16.2295 89.7765 15.7489C89.7765 15.5003 89.6352 15.2807 89.3526 15.0901C89.0778 14.8912 88.2692 14.51 86.9268 13.9466C85.7021 13.4162 84.8464 12.8154 84.3596 12.1442C83.8729 11.4647 83.6295 10.607 83.6295 9.57116C83.6295 8.26186 84.1084 7.24259 85.0662 6.51336C86.0239 5.78413 87.3782 5.41952 89.1289 5.41952C90.0081 5.41952 90.8324 5.5231 91.6018 5.73027C92.379 5.92915 93.1837 6.22333 94.0158 6.6128L92.7676 9.74518C92.1552 9.45515 91.5076 9.21069 90.8246 9.01181C90.1416 8.80464 89.5842 8.70106 89.1524 8.70106C88.3988 8.70106 88.0219 8.89579 88.0219 9.28527C88.0219 9.52559 88.1515 9.73275 88.4105 9.90677C88.6774 10.0725 89.4389 10.4164 90.695 10.9385C91.6293 11.3445 92.324 11.7423 92.7794 12.1318C93.2425 12.5212 93.5801 12.9811 93.7921 13.5115C94.0119 14.0336 94.1218 14.6716 94.1218 15.4257Z" fill="white"/>
</svg>
